X:108 
T:Thrush in the Bush, The 
C:Josephine Keegan
F:file ID: cre.5/208thrush
B:CRE5.013 (SmÃÂÃÂÃÂÃÂ³lach sa Sceach)
M:6/8
Q:160
R:jig
K:G
BA|GFG DB,D|GBd gdB|AEE cEE|AB/c/B AGE|
DB,D G,B,D|gfg dcB|ABc dcA|AGF G:|
DC|B,DG Bdg|gfg dcB|AEE cEE|AB/c/B AGE|
DB,D G,B,D|gfg dcB|ABc dcA|AGF G:|

%%%

